ix/bubble_outline.svg

<svg viewBox="0 0 24 24" fill="none" xmlns="http://www.w3.org/2000/svg" height="1em" width="1em">
  <path d="M15.5909 13.01C12.3509 13.01 9.71094 10.37 9.71094 7.13C9.71094 3.89 12.3509 1.25 15.5909 1.25C18.8309 1.25 21.4709 3.89 21.4709 7.13C21.4709 10.37 18.8309 13.01 15.5909 13.01ZM15.5909 2.75C13.1809 2.75 11.2109 4.71 11.2109 7.13C11.2109 9.55 13.1709 11.51 15.5909 11.51C18.0109 11.51 19.9709 9.55 19.9709 7.13C19.9709 4.71 18.0009 2.75 15.5909 2.75Z" fill="#292D32"/>
  <path d="M6.36124 20.19C4.25124 20.19 2.53125 18.47 2.53125 16.36C2.53125 14.25 4.25124 12.53 6.36124 12.53C8.47124 12.53 10.1913 14.25 10.1913 16.36C10.1913 18.47 8.47124 20.19 6.36124 20.19ZM6.36124 14.03C5.08124 14.03 4.03125 15.07 4.03125 16.36C4.03125 17.64 5.07124 18.69 6.36124 18.69C7.64124 18.69 8.69125 17.65 8.69125 16.36C8.69125 15.08 7.64124 14.03 6.36124 14.03Z" fill="#292D32"/>
  <path d="M16.6205 22.7499C14.7905 22.7499 13.3105 21.2599 13.3105 19.4399C13.3105 17.6099 14.8005 16.1299 16.6205 16.1299C18.4405 16.1299 19.9305 17.6199 19.9305 19.4399C19.9305 21.2599 18.4405 22.7499 16.6205 22.7499ZM16.6205 17.6199C15.6205 17.6199 14.8105 18.4299 14.8105 19.4299C14.8105 20.4299 15.6205 21.2399 16.6205 21.2399C17.6205 21.2399 18.4305 20.4299 18.4305 19.4299C18.4305 18.4399 17.6205 17.6199 16.6205 17.6199Z" fill="#292D32"/>
</svg>

<svg viewBox="0 0 24 24" fill="none" xmlns="http://www.w3.org/2000/svg" height="1em" width="1em">
  <path d="M15.59 13.01a5.89 5.89 0 0 1-5.88-5.88 5.89 5.89 0 0 1 5.88-5.88 5.89 5.89 0 0 1 5.88 5.88 5.89 5.89 0 0 1-5.88 5.88Zm0-10.26c-2.41 0-4.38 1.96-4.38 4.38s1.96 4.38 4.38 4.38 4.38-1.96 4.38-4.38S18 2.75 15.59 2.75ZM6.361 20.19c-2.11 0-3.83-1.72-3.83-3.83 0-2.11 1.72-3.83 3.83-3.83 2.11 0 3.83 1.72 3.83 3.83 0 2.11-1.72 3.83-3.83 3.83Zm0-6.16c-1.28 0-2.33 1.04-2.33 2.33 0 1.28 1.04 2.33 2.33 2.33 1.28 0 2.33-1.04 2.33-2.33 0-1.28-1.05-2.33-2.33-2.33Zm10.259 8.72c-1.83 0-3.31-1.49-3.31-3.31 0-1.83 1.49-3.31 3.31-3.31a3.32 3.32 0 0 1 3.31 3.31 3.32 3.32 0 0 1-3.31 3.31Zm0-5.13a1.81 1.81 0 1 0 0 3.619 1.81 1.81 0 0 0 0-3.62Z" fill="#292D32"/>
</svg>
